icons/hexagon-arrow-up.svg

<svg xmlns="http://www.w3.org/2000/svg" width="24" height="24" viewBox="0 0 24 24">
  <path d="M16.3173342,1 C17.0224657,1 17.6754933,1.37131518 18.0360686,1.97728201 L23.3914405,10.977282 C23.7664613,11.6075253 23.7664613,12.3924747 23.3914405,13.022718 L18.0360686,22.022718 C17.6754933,22.6286848 17.0224657,23 16.3173342,23 L7.68266576,23 C6.97753431,23 6.32450667,22.6286848 5.96393136,22.022718 L0.608559463,13.022718 C0.233538656,12.3924747 0.233538656,11.6075253 0.608559463,10.977282 L5.96393136,1.97728201 C6.32450667,1.37131518 6.97753431,1 7.68266576,1 L16.3173342,1 Z M7.63603897,9.94974747 L7.55285036,10.0439548 C7.24782547,10.436246 7.27555501,11.0034771 7.63603897,11.363961 C8.02656326,11.7544853 8.65972824,11.7544853 9.05025253,11.363961 L9.05025253,11.363961 L10.9991458,9.414 L11,17 L11.0067277,17.1166211 C11.0644928,17.6139598 11.4871642,18 12,18 C12.5522847,18 13,17.5522847 13,17 L13,17 L12.9991458,9.414 L14.9497475,11.363961 L15.0439548,11.4471496 C15.436246,11.7521745 16.0034771,11.724445 16.363961,11.363961 C16.7544853,10.9734367 16.7544853,10.3402718 16.363961,9.94974747 L16.363961,9.94974747 L12.7071068,6.29289322 L12.625449,6.21968877 C12.6225945,6.21739784 12.6197272,6.21512226 12.6128994,6.20970461 C12.6041603,6.2029095 12.5953343,6.19627953 12.5866395,6.19006311 C12.5664533,6.17541687 12.5456983,6.16150681 12.5238,6.14789148 C12.5087703,6.13863517 12.4935488,6.12981337 12.4786822,6.12179647 L12.4786822,6.12179647 L12.4232215,6.09367336 C12.4060985,6.08567905 12.3887956,6.07819642 12.3710585,6.07110396 C12.3515792,6.06331574 12.3317977,6.05612249 12.3121425,6.04973809 L12.3121425,6.04973809 L12.2658396,6.03572097 C12.2444365,6.02983363 12.2227461,6.0246398 12.2007258,6.02024007 C12.1834538,6.01671819 12.1661068,6.01365592 12.1489612,6.01101934 L12.1489612,6.01101934 L12.0802939,6.003 L12.0292939,6.001 L12.0181458,6.001 L12,6 L12,6 L11.9806591,6.0001833 L11.9409686,6.0017331 C11.9308872,6.00232561 11.9208131,6.00307004 11.9101982,6.00397748 L11.9101982,6.00397748 L11.8515331,6.0110178 C11.834051,6.01362808 11.8166247,6.01670217 11.7992059,6.02016515 C11.7772539,6.0246398 11.7555635,6.02983363 11.734007,6.03584514 C11.7182588,6.04017413 11.7025958,6.04489522 11.6872762,6.04987089 C11.6689468,6.0559003 11.6508514,6.06244532 11.6333026,6.06938695 C11.613165,6.07731015 11.5932325,6.08591191 11.5729619,6.09550623 C11.5549095,6.1040443 11.5371537,6.1131069 11.5201698,6.12234168 C11.5064305,6.12986112 11.4928304,6.13772719 11.4793398,6.14606743 C11.4583066,6.15891923 11.4377852,6.17252629 11.4182204,6.1864634 L11.4182204,6.1864634 L11.3762939,6.218 L11.374551,6.21968877 L11.3692939,6.224 L11.3538862,6.2366872 L11.3538862,6.2366872 L11.2928932,6.29289322 L7.63603897,9.94974747 Z"/>
</svg>

<svg xmlns="http://www.w3.org/2000/svg" viewBox="0 0 24 24">
  <path d="M16.32 1a2 2 0 0 1 1.72.98l5.35 9a2 2 0 0 1 0 2.04l-5.35 9a2 2 0 0 1-1.72.98H7.68a2 2 0 0 1-1.72-.98l-5.35-9a2 2 0 0 1 0-2.04l5.35-9A2 2 0 0 1 7.68 1h8.64zM7.64 9.95l-.09.1a1 1 0 0 0 1.5 1.31L11 9.41v7.71a1 1 0 0 0 2-.12V9.41l1.95 1.95.1.09a1 1 0 0 0 1.31-1.5l-3.65-3.66-.08-.07a3.01 3.01 0 0 0-.15-.1l-.06-.03a1 1 0 0 0-.1-.04l-.05-.01a.94.94 0 0 0-.12-.03h-.13L12 6h-.09l-.06.01a1.1 1.1 0 0 0-.28.09 1.06 1.06 0 0 0-.15.09l-.04.03h-.01l-.02.02-.06.05-3.65 3.66z"/>
</svg>
